;[duration=300s fade=5s]
#opll_mode 0
#tempo 59
#title { "Coin"}

@v15 = { ; Bell
;       TL FB
        12, 6,
; AR DR SL RR KL MT AM VB EG KR DT
  13, 2,15, 6, 2, 3, 0, 0, 1, 0, 0,
  15, 4, 2, 4, 0, 4, 1, 0, 1, 0, 0 }

ABCDEFG9 @15 r4

A l8  
A v15  
A q7 o5> b32>d32g32b32gr64 r1

D l8
D v13 r64 ;@v124 r64 @1 
D q7 o5> b32>d32g32b32g r1

G l8
G v15
G q7 o4> d32g32b32>d32<br64 r1
