;[gain=1.0 duration=auto]
#opll_mode 1
#tempo 81
#title { "Shooting Star"}

@v16 = { ; Hard Brass
;       TL FB
        22, 7,
; AR DR SL RR KL MT AM VB EG KR DT
   7, 8, 1, 0, 0, 1, 0, 0, 1, 0, 0,
  12, 2,15, 6, 0, 1, 0, 0, 1, 0, 0 }

B l8 v13 @14 q7 
B o3 g2f4. q6 f24f24f24 q7 e2d+4 q6 fg24g24g24
B v12
B [
B [c24r24c24c24c24c24]4 [d+24r24d+24d+24d+24d+24]4 
B c24r24c24c24c24c24e24r24e24e24e24
B e24f24r24f24f24f24f24g24r24g24g24g24g24 
B [a24r24a24a24a24a24b24r24b24b24b24b24>c24r24c24c24c24c24 d24r24d24d24d24d24<]2 
B q7 g2g4g q6 g24g24g24
B ]0

C l8 v12 q6 @11 
C [[o5 d24g24d24a24d24>d24]3 c24<b24a24|b24g24d24]2 g+24>c+24f24 
C [ v13 @4 q7 o6
C g24f+24d24 q7 c4 q7 d24<b24g24a24b24>c24d24c24<b24 q7 a q7 
C a24b24>c24 q7 d6 q7 <a+24f24 q7 g%60 q7 r16g24a24a+24a24
C a+24>c24d24d+24f24g24f+24d24 q7 c4 q7 d24<b24g24a24b24
C >c24d24c24<b24a24b24>c24d24<b24>g24 
C [<a24>c24g24 <a24>c24g24<b24>d24g24b24g24d24c24e24g24c24e24g24<a24 >d24g24f+24d24a24]2 
C r24b24a24g24f24a24g24d24f24e24d24c24 q7 d6 q7 g24a24 q7 >d4 q7 
C ]0

D l8 v9 q6 @11
D r48 [[o5 d24g24d24a24d24>d24]3 c24<b24a24|b24g24d24]2 g+24>c+24f48
D [ @7 q5 v13 o6 q5
D g24f+24d24 q7 c4 q5 d24<b24g24a24b24>c24d24c24<b24 q7 
D a q5 a24b24>c24 q7 d6 q5 <a+24f24 q7 g%60 q5 r16g24a24a+24a24
D a+24>c24d24d+24f24g24f+24d24 q7 c4 q5 d24<b24g24a24b24
D >c24d24c24<b24a24b24>c24d24<b24>g24< 
D v12 
D [e24a24>e24<e24a24>e24<g24b24>d24g24d24<b24g24>c24e24<g24>c24 e24<f+24a24>d24d24<a24>f+24<]2 
D r24b24a24g24f24a24g24d24f24e24d24c24 q7 d6 q5 g24a24 q6 >d4 
D ]0

E l8 v12 q6 @16 
E [[o5 d24g24d24a24d24>d24]3 c24<b24 a24|b24g24d24]2 g+24>c+24f24 
E [ @9 v12 q6 o5 
E [c24r24c24c24<g24>c24]4 [d+24r24d+24d+24<a+24>d+24]4 c24r24c24
E c24<g24>c24e24r24e24e24c24e24f24r24f24f24c24f24g24 r24g24g24d24g24 
E [a24r24a24a24e24a24b24r24b24b24g24b24>c24r24c24c24<g24>c24d24r24d24d24<a24>d24<]2 
E v12 @8 q6 o6 [<g24>c24<g24>d24<g24>g24]2 g24>c24<g24>d24<g24>g24 d24c24<g24d24c24<g24
E ]0

9 l8 v12 @3 q4so o6
9 g4r g24g24g24 
9 f4r f24f24f24
9 e4r e24e24e24
9 d+4f4 
9 [o6 v11
9 q7 c12c%56c12c%80cd+12d+%56d+12d+%80d+24d24c+24c4e4f4g4r1r1
9 g2g4d c+
9 ]0

A l8 v12 @3 q4so o6
A d4r    d24d24d24
A c4r    c24c24c24
A <b4r> <b24b24b24>
A <a+4>c4 
A [o5 v11
A q7 g12g%56g12g%80ga+12a+%56a+12a+%80a+24a24g+24g4b4>c4d4r1r1
A d2d4<a g+
A ]0

F l8 v14vh13vs15 [b:b:b16.h64h64b24h24c24b:b:|b16.vs-3bs64bs64vs+3s24s24s24]2 b:bs48bs48s24s24
F [
F [b12b24|s24b12]7 vs-3bs48bs48vs+3s24s24b12b24s24s24s24
F [b12b24s24b12]4
F [[b12b24s24|b24b24]4 s24s24]2 b24vs-3bs48bs48vs+3s24s24s24s24m48m48m24m24bm24bm24b24s24h24b24s24h24b24s24h24
F b24m48m48bm48bm48b48b48
F ]0